X:1
T:Title
%%score { ( 1 3 ) | ( 2 4 ) }
L:1/8
M:4/4
K:Bb
V:1 treble nm="Grand Piano"
V:3 treble 
V:2 bass 
V:4 bass 
V:1
 z4 z2[Q:1/4=106] F2 | B3 F D2 G2 | F3 D B,2 [B,DF]2 | [B,FB]2 F2 c2 F2 |[M:3/4] [Fd]6 | %5
[M:1/4] D2 |[M:4/4] G3 A B2 [CGc]2 | d2 z2 z4 | [Ec]3 [Ec] [EA]2 [EG]2 |[M:3/4] F6 |[M:1/4] F2 | %11
[M:4/4] [Ae]3 [Bd] c2 A2 | [DB]2 [Fd]2 [DF]2 ^F2 | G2 A2 B2 [Gc]2 |[M:3/4] [^Fd]6 |[M:1/4] D2 | %16
[M:4/4] E2 D2 G2 F2 | [Fd]4 [Be]2 [B=e]2 | [Bf]3 [Bf] [Af]2 [EFA]2 |[M:3/4] [DFB]6 |] %20
V:2
 z4 z2 F,2 | B,3 F, D,2 G,2 | F,3 D, B,,2 B,,2 | D,2 [D,B,]2 [F,A,F]2 [F,A,]2 |[M:3/4] [B,,B,]6 | %5
[M:1/4] D,2 |[M:4/4] G,3 A, B,2 E,2 | D,2- [D,D]2[K:treble] [G,DG]2 [G,B,D]2 | %8
 [C,G,]3 [C,G,] [C,C]2 [C,B,]2 |[M:3/4] [F,A,]6 |[M:1/4] F,2 | %11
[M:4/4] [F,C]3 [F,B,] [F,A,]2 [F,CE]2 | [B,,B,]4 [B,,B,]2 [D,A,D]2 | %13
 [G,B,D]2 [^F,CD]2 [G,B,D]2 [E,G,]2 |[M:3/4] [D,A,]6 |[M:1/4] D,2 |[M:4/4] E,2 D,2 G,2 F,2 | %17
 B,4 z4 | [F,D]3 [F,D] [F,E]2 F,2 |[M:3/4] B,,6 |] %20
V:3
 x8 | x8 | x8 | x8 |[M:3/4] x6 |[M:1/4] x2 |[M:4/4] x8 | ^F2- [FA]2 B2 G2 | x8 |[M:3/4] x6 | %10
[M:1/4] x2 |[M:4/4] x8 | x8 | x8 |[M:3/4] x6 |[M:1/4] x2 |[M:4/4] x8 | x8 | x8 |[M:3/4] x6 |] %20
V:4
 x8 | x8 | x8 | x8 |[M:3/4] x6 |[M:1/4] x2 |[M:4/4] x8 | A,2 z2[K:treble] z4 | x8 |[M:3/4] x6 | %10
[M:1/4] x2 |[M:4/4] x8 | x8 | x8 |[M:3/4] x6 |[M:1/4] x2 |[M:4/4] x8 | z2 _A,2 [G,B,]2 [^F,_D]2 | %18
 x8 |[M:3/4] x6 |] %20

